!!!!SEGMENT: pl-kozmzk--mzk-m-31--012_szymanowska-maria--preludium-es-dur.krn
!!!id: 18xx:448
!!!COM: Szymanowska, Maria
!!!COM-rism: pe140138
!!!CDT: 1789/12/14-1831/07/25
!!!CNT: Polish
!!!OTL: Preludium Es-dur
!!!PDT: 1819
!!!SMS-siglum: PL-KOZmzk
!!!SMS-shelfmark: mzk/m/31
!!!NIFC-rismID: 1001025335
!!!URL-scan: http://repozytorium.nifc.pl/skany/pl-kozmzk-nut--mzkm31
!!!ONB-nifc:
!!!SMS-variant:
!!!SMS-altvar:
**kern	**kern	**dynam
*part2	*part1	*part1
*staff2	*staff1	*
*clefF4	*clefG2	*
*k[b-e-a-]	*k[b-e-a-]	*
*M4/4	*M4/4	*
*met(c)	*met(c)	*
=1	=1	=1
!	!LO:TX:a:t=Vivace	!
1DD; 1D	2r	.
.	2a-;^<\ 2b- 2ff	.
=2	=2	=2
!LO:TX:a:t=P:problem:mixed beam	!	!
8EE-/L	8gg`\L	.
8E-\ 8G	8g\ 8b-	.
8EE-/	8ff`\	.
8E-\J 8G	8g\J 8b-	.
*rep	*	*
!LO:TX:a:t=P:problem:mixed beam	!	!
8EE-/L	8ee-`\L	.
8E-\ 8G	8g\ 8b-	.
8EE-/	8dd`\	.
8E-\J 8G	8g\J 8b-	.
*Xrep	*	*
=3	=3	=3
!LO:TX:a:t=P:problem:mixed beam	!	!
8AA-/L	8cc`</L	.
8A-\ 8c	8e-/ 8a-	.
8AA-/	8dd`</	.
8A-\J 8c	8e-/J 8a-	.
*rep	*	*
!LO:TX:a:t=P:problem:mixed beam	!	!
8AA-/L	8ee-`</L	.
8A-\ 8c	8e-/ 8a-	.
8AA-/	8cc`</	.
8A-\J 8c	8e-/J 8a-	.
*Xrep	*	*
=4	=4	=4
!LO:TX:a:t=P:problem:mixed beam	!	!
8BB-\L	8b-/L	.
8B-\ 8d	8f/ 8a-	.
8BB-\	8cc-X^</	.
8B-\J 8d	8f/J 8a-	.
*rep	*	*
!LO:TX:a:t=P:problem:mixed beam	!	!
8BB-\L	8b-/L	.
8B-\ 8d	8f/ 8a-	.
8BB-\	8dd/	.
8B-\J 8d	8f/J 8a-	.
*Xrep	*	*
=5	=5	=5
!LO:TX:a:t=P:problem:mixed beam	!	!
8EE-/L	8ee-\L	.
8E-\ 8G	8g\ 8b-	.
8EE-/	8gg\	.
8E-\J 8G	8g\J 8b-	.
!LO:TX:a:t=P:problem:mixed beam	!	!
8EE-/L	8ff\L	.
8D\ 8F	8a-\ 8b-	.
8EE-/	8bb-\	.
8D\J 8F	8a-\J 8b-	.
=6	=6	=6
!LO:TX:a:t=P:problem:mixed beam	!	!
8EE-/L	8gg\L	.
8E-\ 8G	8g\ 8b-	.
8EE-/	8ff\	.
8E-\J 8G	8g\J 8b-	.
*rep	*	*
!LO:TX:a:t=P:problem:mixed beam	!	!
8EE-/L	8ee-\L	.
8E-\ 8G	8g\ 8b-	.
8EE-/	8dd\	.
8E-\J 8G	8g\J 8b-	.
!!LO:LB:g=original
*Xrep	*	*
=7	=7	=7
!LO:TX:a:t=P:problem:mixed beam	!	!
8AA-/L	8cc/L	.
8A-\ 8c	8e-/ 8a-	.
8AA-/	8ee-^>/	.
8A-\J 8c	8e-/J 8a-	.
*rep	*	*
!LO:TX:a:t=P:problem:mixed beam	!	!
8AA-/L	8dd/L	.
8A-\ 8c	8e-/ 8a-	.
8AA-/	8cc/	.
8A-\J 8c	8e-/J 8a-	.
*Xrep	*	*
=8	=8	=8
!LO:TX:a:t=P:problem:mixed beam	!	!
8BB-/L	8b-/L	.
8B-\ 8d	8f/ 8a-	.
8BB-/	8cc-X^>/	.
8B-\J 8d	8f/J 8a-	.
*rep	*	*
!LO:TX:a:t=P:problem:mixed beam	!	!
8BB-/L	8b-/L	.
8B-\ 8d	8f/ 8a-	.
8BB-/	8dd/	.
8B-\J 8d	8f/J 8a-	.
*Xrep	*	*
=9	=9	=9
!LO:TX:a:t=P:problem:mixed beam	!	!
8EE-/L	8ee-\L	.
8E-\ 8G	8g\ 8b-	.
8EE-/	8gg\	.
8E-\J 8G	8g\J 8b-	.
!LO:TX:a:t=P:problem:mixed beam	!	!
8EE-/L	8ff\L	.
8D\ 8F	8a-\ 8b-	.
8EE-/	8bb-\	.
8D\J 8F	8a-\J 8b-	.
=10	=10	=10
!LO:TX:a:t=P:problem:mixed beam	!	!
8EE-/L	8gg\L	.
8E-\ 8G	8g\ 8b-	.
8EE-/	8ee-\	.
8E-\J 8G	8g\J 8b-	.
!LO:TX:a:t=P:problem:mixed beam	!	!
8EE-/L	8ff\L	.
8D\ 8F	8a-\ 8b-	.
8EE-/	8bb-\	.
8D\J 8F	8a-\J 8b-	.
=11	=11	=11
!LO:TX:a:t=P:problem:mixed beam	!	!
8EE-/L	8gg\L	.
8E-\ 8G	8g\ 8b-	.
8EE-/	8gg\	.
8E-\J 8G	8g\J 8b-	.
!LO:TX:a:t=P:problem:mixed beam	!	!
8GG/L	8gg^\L	.
8G\ 8Bn	8f\ 8bn	.
8GG/	8ff\	.
8G\J 8B	8f\J 8b	.
=12	=12	=12
!LO:TX:a:t=P:problem:mixed beam	!	!
8C\L	8ff^\L	.
8E-\ 8c	8g\ 8cc	.
8C\	8ee-\	.
8E-\J 8c	8g\J 8cc	.
!LO:TX:a:t=P:problem:mixed beam	!	!
8FF/L	8ee-^\L	.
8D-X/ 8F	8f\ 8a-	.
8FF/	8dd-X\	.
8D-/J 8A-	8f\J 8a-	.
!!LO:LB:g=original
=13	=13	=13
!LO:TX:a:t=P:problem:mixed beam	!	!
8GG/L	8dd-X^>/L	.
8E-\ 8G	8e-/ 8g	.
8GG/	8cc/	.
8E-\J 8G	8e-/J 8g	.
!LO:TX:a:t=P:problem:mixed beam	!	!
8GG/L	8cc^>/L	.
8F\ 8Bn	8d/ 8f	.
8GG/	8bn/	.
8F\J 8B	8d/J 8f	.
=14	=14	=14
!LO:TX:a:t=P:problem:mixed beam	!	!
8AA-\L	8ddn^>/L	.
8E-\ 8c	8e-/ 8a-	.
8AA-\	8cc/	.
8E-\J 8c	8e-/J 8a-	.
!LO:TX:a:t=P:problem:mixed beam	!	!
8AAn\L	8dd^>/L	.
8F#X\ 8c	8e-/ 8f#X	.
8AA\	8cc/	.
8F#\J 8c	8e-/J 8f#	.
=15	=15	=15
!LO:TX:a:t=P:problem:mixed beam	!	!
8BB-/L	8b-/L	<
8G\J 8B-	8e-/J 8g	.
!LO:TX:a:t=P:problem:mixed beam	!	!
8BB-/L	8gg\L	.
8G\J 8e-	8g\J 8b-	.
!LO:TX:a:t=P:problem:mixed beam	!	!
8BB-/L	8gg\L	[
8G\J 8e-	8g\ 8b-	.
!LO:TX:a:t=P:problem:mixed beam	!	!
8BB-/L	8ff\	.
8A-\J 8d	8a-\J 8b-	.
=16	=16	=16
!LO:TX:a:t=P:problem:mixed beam	!	!
8BB-/L	8ee-\L	<
8G\ 8e-	8g\ 8b-	.
8BB-/	8bb-\	.
8G\J 8e-	8g\J 8b-	.
!LO:TX:a:t=P:problem:mixed beam	!	!
8BB-/L	8bb-\L	[
8G\ 8e-	8g\ 8b-	.
8BB-/	8aa-\	.
8F\J 8d	8a-\J 8b-	.
=17	=17	=17
!LO:TX:a:t=P:problem:mixed beam	!	!
8BB-/L	8gg\L	.
8G\ 8e-	8g\ 8b-	.
8BB-/	8gg\	.
8G\J 8e-	8g\J 8b-	.
!LO:TX:a:t=P:problem:mixed beam	!	!
8BB-/L	8gg\L	.
8G\ 8e-	8g\ 8b-	.
8BB-/	8ff\	.
8A-\J 8d	8a-\J 8b-	.
=18	=18	=18
8BB-\L	8ee-\L	.
8G\ 8e-	8g\ 8b-	.
8BB-\	8gg\	.
8G\J 8e-	8g\J 8b-	.
!LO:TX:a:t=P:problem:mixed beam	!	!
8AAn/L	8gg\L	.
8F\ 8c	8e-\ 8an	.
8AA/	8ff\	.
8F\J 8c	8e-\J 8a	.
!!LO:LB:g=original
=19	=19	=19
8BB-\L	8gg^\L	.
8F\ 8d	8f\ 8b-	.
8BB-\	8ff\	.
8F\J 8d	8f\J 8b-	.
!LO:TX:a:t=P:problem:mixed beam	!	!
8EE-/L	8ff^\L	.
8E-\ 8G	8g\ 8cc	.
8EE-/	8ee-\	.
8E-\J 8G	8g\J 8cc	.
=20	=20	=20
!LO:TX:a:t=P:problem:mixed beam	!	!
8FF/L	8ee-^>/L	.
8D\ 8B-	8f/ 8b-	.
8FF/	8dd/	.
8D\J 8B-	8f/J 8b-	.
!LO:TX:a:t=P:problem:mixed beam	!	!
8FF/L	8dd^>/L	.
8E-\ 8An	8e-/ 8an	.
8FF/	8cc/	.
8E-\J 8A	8e-/J 8a	.
=21	=21	=21
8DD/L	8gg^\L	.
8BB-/ 8F	8f\ 8b-	.
8DD/	8ff\	.
8BB-/J 8F	8f\J 8b-	.
8EE-/L	8aan\L	<
8E-/ 8G	8g\ 8ee-	.
8EE-/	8gg\	.
8E-/J 8G	8g\J 8ee-	.
=22	=22	=22
!LO:TX:a:t=P:problem:mixed beam	!	!
8FF/L	8bbn^\L	.
8E-\ 8An	8cc\ 8ee-	.
8FF/	8aan\	.
8E-\J 8A	8cc\J 8ee-	.
8GG\L	8ccc\L	.
8D\ 8B-	8dd\ 8gg	.
8GG\	8bb\	.
8D\J 8B-	8dd\J 8gg	.
=23	=23	=23
!LO:TX:a:t=P:problem:mixed beam	!	!
8AAn/L	8ddd\L	.
8F\ 8c	8ee-\ 8ff	.
8AA/	8ccc\	.
8F\J 8c	8ee-\J 8ff	.
8BB-\L	8eee-\L	.
8F\ 8d	8dd\ 8ff	.
8BB-\	8ddd\	.
8F\J 8d	8dd\J 8ff	.
=24	=24	=24
*	*8va	*
!	!LO:TX:a:t=8va	!
8C\L	8bbb-\L	.
8An\ 8f	8ccc\ 8eee-	.
8C\	8aaan\	.
8A\J 8f	8ccc\J 8eee-	.
8D\L	8cccc\L	.
8B-\ 8f	8ddd\ 8fff	.
8D\	8bbb-\	.
8B-\J 8f	8ddd\J 8fff	.
!!LO:LB:g=original
=25	=25	=25
8E-\L	8aaan\L	.
8B-\ 8g	8bb-\ 8eee-	.
8E-\	8ggg\	.
8B-\J 8g	8bb-\J 8eee-	.
8En\L	8aaan\L	.
8d-X\ 8g	8bb-\ 8ddd-X	.
8E\	8ggg\	.
8d-\J 8g	8bb-\J 8ddd-	.
*	*X8va	*
=26	=26	=26
!	!LO:TX:a:i:t=loco	!
8F\L	8fff\L	.
8B-\ 8d 8fn	8ff\ 8bb- 8dddn	.
8F\	8fff\	.
8B-\J 8d 8f	8ff\J 8bb- 8ddd	.
8F\L	8fff\L	.
8B-\ 8c 8f	8ff\ 8bb- 8ccc	.
8F\ 8d	8fff\	.
8An\J 8c 8f	8ff\J 8aan 8ccc	.
=27	=27	=27
4B-\ 4d	4bb-\ 4ddd	.
8G-X\L	8ggg-X\L	f
8B-\ 8d-X 8g-X	8gg-X\ 8bb- 8ddd-X	.
8G-\	8ggg-\	.
8B-\J 8d- 8g-	8gg-\J 8bb- 8ddd-	.
8G-X\L	8eeen\L	.
8B-\J 8d-X 8en	8gg-\J 8bb- 8ddd-X	.
=28	=28	=28
8F\L	8fff\L	>
8B-\ 8d-X 8f	8ff\ 8bb- 8ddd-X	.
8F\	8fff\	.
8B-\J 8d- 8f	8ff\J 8bb- 8ddd-	.
8F\L	8fff\L	.
8An\ 8c 8f	8ff\ 8aan 8ccc	]
8F\	8fff\	.
8A\J 8c 8f	8ff\J 8aa 8ccc	.
=29	=29	=29
4B-\ 4d-X	4bb-\ 4ddd-X	.
8G-X\L	8ggg-X\L	ff
8B-X\J 8d- 8g-X	8gg-X\J 8bb- 8ddd-X	.
8G-\L	8eeen\L	.
8B-\ 8c 8en	8gg-X\ 8bb- 8ccc	.
8G-\	8eee\	.
8B-\J 8c 8e	8gg-\J 8bb- 8ccc	.
=30	=30	=30
8F\L	8fff\L	>
8B-\ 8dn 8f	8ff\ 8bb- 8dddn	.
8F\	8fff\	.
8B-\J 8d 8f	8ff\J 8bb- 8ddd-X	.
8F\L	8fff\L	.
8B-\ 8c 8f	8ff\ 8bb- 8ccc	.
8F\	8fff\	.
8An\J 8c 8f	8ff\J 8aan 8ccc	]]
!!LO:LB:g=original
=31	=31	=31
!LO:TX:a:t=P:problem:mixed beam	!	!
8BB-/L	8ddd`\L	.
8B-\ 8d	8dd\ 8ff	.
8BB-/	8ccc`\	.
8B-\J 8d	8dd\J 8ff	.
*rep	*	*
!LO:TX:a:t=P:problem:mixed beam	!	!
8BB-/L	8bb-`\L	.
8B-\ 8d	8dd\ 8ff	.
8BB-/	8aan`\	.
8B-\J 8d	8dd\J 8ff	.
*Xrep	*	*
=32	=32	=32
!LO:TX:a:t=P:problem:mixed beam	!	!
8EE-/L	8gg\L	.
8E-\ 8G	8b-\ 8ee-	.
8EE-/	8aan\	.
8E-\J 8G	8b-\J 8ee-	.
*rep	*	*
!LO:TX:a:t=P:problem:mixed beam	!	!
8EE-/L	8bb-\L	.
8E-\ 8G	8b-\ 8ee-	.
8EE-/	8gg\	.
8E-\J 8G	8b-\J 8ee-	.
*Xrep	*	*
=33	=33	=33
!LO:TX:a:t=P:problem:mixed beam	!	!
8FF/L	8ff\L	.
8C\ 8An	8cc\ 8ee-	.
8FF/	8gg-X^\	.
8C\J 8A	8cc\J 8ee-	.
*rep	*	*
!LO:TX:a:t=P:problem:mixed beam	!	!
8FF/L	8ff\L	.
8C\ 8A	8cc\ 8ee-	.
8FF/	8aan\	.
8C\J 8A	8cc\J 8ee-	.
*Xrep	*	*
=34	=34	=34
8BB-\L	8bb-\L	.
8F\ 8d	8dd\ 8ff	.
8BB-\	8ddd\	.
8F\J 8d	8dd\J 8ff	.
8BB-\L	8ccc\L	.
8F\ 8e-	8ee-\ 8ff	.
8BB-\	8fff\	.
8F\J 8e-	8ee-\J 8ff	.
=35	=35	=35
8BB-\L	8ddd\L	.
8B-\ 8d	8dd\ 8ff	.
8BB-\	8ccc\	.
8B-\J 8d	8dd\J 8ff	.
*rep	*	*
8BB-\L	8bb-\L	.
8B-\ 8d	8dd\ 8ff	.
8BB-\	8aan\	.
8B-\J 8d	8dd\J 8ff	.
*Xrep	*	*
=36	=36	=36
!LO:TX:a:t=P:problem:mixed beam	!	!
8EE-/L	8gg\L	.
8E-\ 8G	8b-\ 8ee-	.
8EE-/	8bb-\	.
8E-\J 8G	8b-\J 8ee-	.
*rep	*	*
!LO:TX:a:t=P:problem:mixed beam	!	!
8EE-/L	8aan\L	.
8E-\ 8G	8b-\ 8ee-	.
8EE-/	8gg\	.
8E-\J 8G	8b-\J 8ee-	.
*Xrep	*	*
!!LO:LB:g=original
=37	=37	=37
8FF\L	8ff\L	.
8C\ 8An	8cc\ 8ee-	.
8FF\	8gg-X^\	.
8C\J 8A	8cc\J 8ee-	.
*rep	*	*
8FF\L	8ff\L	.
8C\ 8A	8cc\ 8ee-	.
8FF\	8aan\	.
8C\J 8A	8cc\J 8ee-	.
*Xrep	*	*
=38	=38	=38
8BB-\L	8bb-\L	.
8F\ 8d	8dd\ 8ff	.
8BB-\	8ddd\	.
8F\J 8d	8dd\J 8ff	.
8BB-\L	8ccc\L	.
8F\ 8e-	8ee-\ 8ff	.
8BB-\	8fff\	.
8F\J 8e-	8ee-\J 8ff	.
=39	=39	=39
8BB-\L	8ddd\L	.
8F\ 8d	8dd\ 8ff	.
8BB-\	8bb-\	.
8F\J 8d	8dd\J 8ff	.
8BB-\L	8ccc\L	.
8F\ 8e-	8ee-\ 8ff	.
8BB-\	8fff\	.
8F\J 8e-	8ee-\J 8ff	.
=40	=40	=40
8BB-\L	8ddd\L	.
8F\ 8d	8dd\ 8ff	.
8BB-\	8ddd\	.
8F\J 8d	8dd\J 8ff	.
8BB-\L	8ddd^\L	.
8A-\ 8f#X	8dd\ 8ff#X	.
8D\	8ccc\	.
8A-\J 8f#	8dd\J 8ff#	.
=41	=41	=41
8G\L	8ccc\L	.
8d\ 8g	8dd\ 8gg	.
8G\	8bb-\	.
8d\J 8g	8dd\J 8gg	.
8En\L	8ddd^\L	.
8c\ 8g	8cc\ 8gg	.
8E\	8ccc\	.
8c\J 8g	8cc\J 8gg	.
=42	=42	=42
8F\L	8bb-\L	.
8c\ 8f	8cc\ 8ff	.
8F\	8aan\	.
8c\J 8f	8cc\J 8ff	.
8D\L	8ccc^\L	.
8B-\ 8f	8b-\ 8ff	.
8D\	8bb-\	.
8B-\J 8f	8b-\J 8ff	.
!!LO:PB:g=original
=43	=43	=43
8En\L	8aan\L	.
8B-X\ 8en	8b-\ 8een	.
8E\	8gg\	.
8B-\J 8e	8b-\J 8ee	.
8C#X\L	8bb-^\L	.
8An\ 8en	8a-\ 8ee	.
8C#\	8aa\	.
8A\J 8e	8a-\J 8ee	.
=44	=44	=44
8D\L	8gg\L	.
8A-\ 8d	8an\ 8dd	.
8D\	8ff\	.
8A-\J 8d	8a\J 8dd	.
8BBn\L	8aan^\L	.
8G\ 8d	8g\ 8dd	.
8BB\	8gg\	.
8G\J 8d	8g\J 8dd	.
=45	=45	=45
8C\L	8een\L	ff
8G\ 8en	8g\ 8cc	.
8C\	8gg\	.
8G\J 8e	8g\J 8cc	.
8C\L	8aan\L	.
8G\ 8f	8g\ 8bn	.
8C\	8gg\	.
8G\J 8f	8g\J 8b	.
=46	=46	=46
8C\L	8ccc\L	.
8G\ 8en	8g\ 8cc	.
8C\	8gg\	.
8G\J 8e	8g\J 8cc	.
8C\L	8aan\L	.
8G\ 8f	8g\ 8bn	.
8C\	8gg\	.
8G\J 8f	8g\J 8b	.
=47	=47	=47
8C\L	8ee-X\L	pp
8G\ 8e-X	8g\ 8cc	.
8C\	8gg\	.
8G\J 8e-	8g\J 8cc	.
8C\L	8aa-X\L	.
8G\ 8f	8g\ 8bn	.
8C\	8gg\	.
8G\J 8f	8g\J 8b	.
=48	=48	=48
8C\L	8ccc\L	.
8G\ 8e-X	8g\ 8cc	.
8C\	8gg\	.
8G\J 8e-	8g\J 8cc	.
8C\L	8aa-X^\L	.
8G\ 8f	8g\ 8bn	.
8C\	8gg\	.
8G\J 8f	8g\J 8b	.
!!LO:LB:g=original
=49	=49	=49
8C\L	8gg\L	.
8G\ 8e-	8g\ 8cc	.
8C\	8gg\	.
8G\J 8e-	8g\J 8cc	.
8AAn\L	8gg\L	.
8F\ 8c	8f\ 8cc 8ee-	.
8AA\	8ff\	.
8F\J 8c	8f\J 8cc 8ee-	.
=50	=50	=50
8BB-\L	8bb-\L	.
8F\ 8d	8f\ 8b- 8dd	.
8BB-\	8ff\	.
8F\J 8d	8f\J 8b- 8dd	.
8AAn\L	8gg\L	.
8F\ 8c	8f\ 8cc 8ee-	.
8AA\	8ff\	.
8F\J 8c	8f\J 8cc 8ee-	.
=51	=51	=51
8BB-\L	8ff\L	.
8F\ 8B-	8f\ 8b- 8dd	.
8BB-\	8ff\	.
8F\J 8B-	8f\J 8b- 8dd	.
8AAn\L	8gg^\L	<
8F\ 8c	8f\ 8cc 8ee-	.
8AA\	8ff\	.
8F\J 8c	8f\J 8cc 8ee-	.
=52	=52	=52
8BB-\L	8gg^\L	.
8D\ 8B-	8f\ 8b- 8dd	.
8BB-\	8ff\	.
8D\J 8B-	8f\J 8b- 8dd	.
8AA--\L	8gg\L	[ rf
8D\ 8F 8B-	8f\ 8b- 8dd	.
8AA--\	8ff\	.
8D\J 8F 8B-	8f\J 8b- 8dd	.
=53	=53	=53
8GG\L	8ccc^\L	.
8E-\ 8B-	8ee-\ 8gg	.
8GG\	8bb-\	.
8E-\J 8B-	8ee-\J 8gg	.
8AA-\L	8bb-^\L	.
8A-\ 8c	8cc\ 8ff	.
8AA-\	8aa-\	.
8A-\J 8c	8cc\J 8ff	.
=54	=54	=54
8BB-\L	8aa-^\L	.
8B-\ 8e-	8b-\ 8ee-	.
8BB-\	8gg\	.
8B-\J 8e-	8b-\J 8ee-	.
8BB-\L	8gg^\L	.
8A-\ 8B- 8d	8a-\ 8dd	.
8BB-\	8ff\	.
8A-\J 8B- 8d	8a-\J 8dd	.
!!LO:LB:g=original
=55	=55	=55
8GG\L	8ccc^\L	.
8E-\ 8B-	8b-\ 8ee-	.
8GG\	8bb-\	.
8E-\J 8B-	8b-\J 8ee-	.
8AA-\L	8ddd^\L	.
8A-\ 8c	8cc\ 8ff	.
8AA-\	8ccc\	.
8A-\J 8c	8cc\J 8ff	.
=56	=56	=56
*	*8va	*
!	!LO:TX:a:t=8va	!
8BB-\L	8eee-\L	.
8A-\ 8d	8ff\ 8aa-	.
8BB-\	8ddd\	.
8A-\J 8d	8ff\J 8aa-	.
8C\L	8fff\L	.
8G\ 8e-	8gg\ 8ccc	.
8C\	8eee-\	.
8G\J 8e-	8gg\J 8ccc	.
=57	=57	=57
8D\L	8ggg\L	.
8B-\ 8f	8aa-\ 8bb-	.
8D\	8fff\	.
8B-\J 8f	8aa-\J 8bb-	.
8E-\L	8aaa-\L	.
8B-\ 8g	8gg\ 8bb-	.
8E-\	8ggg\	.
8B-\J 8g	8gg\J 8bb-	.
*	*X8va	*
=58	=58	=58
*clefG2	*	*
!	!LO:TX:a:i:t=loco	!
8F/L	8eee-\L	.
8d/ 8b-	8ff\ 8aa-	.
8F/	8ddd\	.
8d/J 8b-	8ff\J 8aa-	.
8G/L	8fff\L	.
8e-/ 8b-	8gg\ 8bb-	.
8G/	8eee-\	.
8e-/J 8b-	8gg\J 8bb-	.
=59	=59	=59
8A-/L	8ddd\L	.
8e-/ 8cc	8ee-\ 8aa-	.
8A-/	8ccc\	.
8e-/J 8cc	8ee-\J 8aa-	.
8An/L	8ddd\L	.
8f#X/ 8cc	8ee-\ 8ff#X	.
8A/	8ccc\	.
8f#/J 8cc	8ee-\J 8ff#	.
=60	=60	=60
8B-/L	8bb-\L	.
8e-/J 8g 8b-	8b-\ 8ee- 8gg	.
*clefF4	*	*
8BB-\L	8bb-\	.
8E-\J 8G 8B-	8b-\J 8ee- 8gg	.
8D\L	8bb-\L	.
8E-\ 8F 8B-	8b-\ 8ee- 8ff	.
8D\	8bb-\	.
8D\J 8F 8B-	8b-\J 8dd 8ff	.
!!LO:LB:g=original
=61	=61	=61
4E-\ 4G	4ee-\ 4gg	.
8C-X\L	8ccc-X\L	f
8E-\J 8G-X 8c-X	8cc-X\J 8ee- 8gg-X	.
8C-\L	8ccc-\L	.
8E-\J 8G- 8c-	8cc-\J 8ee- 8gg-	.
8C-\L	8aan\L	.
8E-\J 8G- 8An	8cc-\J 8ee- 8gg-	.
=62	=62	=62
8BB-\L	8bb-\L	.
!	!	!LO:HP:t=dim
8E-\ 8G-X 8B-	8b-\ 8ee- 8gg-X	>
8BB-\	8bb-\	.
8E-\J 8G- 8B-	8b-\J 8ee- 8gg-	.
8BB-\L	8bb-\L	.
8D\ 8F 8B-	8b-\ 8dd 8ff	.
8BB-\	8bb-\	.
8D\J 8F 8B-	8b-\J 8dd 8ff	.
=63	=63	=63
4E-\ 4G-X	4ee-\ 4gg-X	.
8C-X\L	8ccc-X\L	ff
8E-\J 8G- 8c-X	8cc-X\J 8ee- 8gg-X	.
8C-\L	8ccc-\L	.
8E-\J 8G- 8c-	8cc-\J 8ee- 8gg-	.
8Cn\L	8aan\L	.
8cn\J	8an\J 8ee- 8gg-	.
=64	=64	=64
*k[f#c#g#d#]	*k[f#c#g#d#]	*
!	!LO:TX:b:i:t=rallen&colon;	!
!	!LO:TX:a:t=problem:trzy kasowniki przed krzyżykami	!
8C#\L	8gg#\L	.
8c#\	8g#\ 8cc# 8ee	.
8GG#\	8gg#\	.
8G#\J	8g#\J 8cc# 8ee	.
8AA\L	8ff#\L	.
8A\	8f#\ 8cc# 8ee	.
8BB\	8bb\	.
8B\J	8b\J 8dd# 8ff#	p
=65	=65	=65
!	!LO:TX:b:t=a tempo	!
8E\L	8gg#\L	.
8B\ 8e	8g#\ 8b	.
8E\	8ff#\	.
8B\J 8e	8g#\J 8b	.
8E\L	8ee\L	.
8B\ 8e	8g#\ 8b	.
8E\	8dd#\	.
8B\J 8e	8g#\J 8b	.
!!LO:LB:g=original
=66	=66	=66
8AA\L	8cc#`/L	.
8E\ 8A	8e/ 8a	.
8AA\	8dd#/	.
8E\J 8A	8e`/J 8a	.
8AA\L	8ee/L	.
8E\ 8A	8e/ 8a	.
8AA\	8cc#/	.
8E\J 8A	8e/J 8a	.
=67	=67	=67
8BB\L	8b/L	.
8F#\ 8B	8f#/ 8a	.
8BB\	8ccn^/	.
8F#\J 8B	8f#/J 8a	.
8BB\L	8b/L	.
8F#\ 8B	8f#/ 8a	.
8BB\	8dd#/	.
8F#\J 8B	8f#/J 8a	.
=68	=68	=68
*k[b-e-a-]	*k[b-e-a-]	*
!	!LO:TX:a:t=problem:znaki od drugiej miary	!
8En\L	8ee\L	<
8Bn\ 8en	8g#\ 8b	.
8E\	8ee\	.
8B\J 8e	8g#\J 8b	.
!	!LO:TX:a:t=problem:4kasowniki	!
8D`\L	8ff\L	.
8B\ 8d	8a-\ 8b	.
8D\	8ff#X^\	.
8B\J 8d	8a-\J 8b	[[
=69	=69	=69
!	!LO:TX:b:i:t=espres	!
8E-\L	8gg\L	.
8B-\ 8e-	8g\ 8b-	.
8E-\	8ff\	.
8B-\J 8e-	8g\J 8b-	.
8E-\L	8ee-\L	.
8B-\ 8e-	8g\ 8b-	.
8E-\	8dd\	.
8B-\J 8e-	8g\J 8b-	.
=70	=70	=70
8AA-\L	8cc/L	.
8A-\ 8c	8e-/ 8a-	.
8AA-\	8ee-^>/	.
8A-\J 8c	8e-/J 8a-	.
8AA-\L	8dd/L	.
8A-\ 8c	8e-/ 8a-	.
8AA-\	8cc/	.
8A-\J 8c	8e-/J 8a-	.
!!LO:LB:g=original
=71	=71	=71
8BB-\L	8b-/L	.
8B-\ 8d	8f/ 8a-	.
8BB-\	8cc-X/	.
8B-\J 8d	8f/J 8a-	.
8BB-\L	8b-/L	.
8B-\ 8d	8f/ 8a-	.
8BB-\	8dd/	.
8B-\J 8d	8f/J 8a-	.
=72	=72	=72
8EE-\L	8ee-\L	.
8E-\ 8G	8g\ 8b-	.
8EE-\	8gg\	.
8E-\J 8G	8g\J 8b-	.
8EE-\L	8ff\L	.
8D\ 8F	8a-\ 8b-	.
8EE-\	8bb-\J	.
8D\J 8F	8r	.
=73	=73	=73
*	*8va	*
!	!LO:TX:a:t=8va	!
8E-\L 8G	8gg`\L 8bb-	.
8EE-\	8ggg\	.
8E-\ 8G	8gg`\ 8bb-	.
8EE-\J	8fff\J	.
8E-\L 8G	8gg\L 8bb-	.
8EE-\	8eee-\	.
8E-\ 8G	8gg\ 8bb-	.
8EE-\J	8ddd\J	.
=74	=74	=74
8A-\L 8c	8ee-/L 8aa-	.
8AA-\	8ccc/	.
8A-\ 8c	8ee-/ 8aa-	.
8AA-\J	8ddd/J	.
8A-\L 8c	8ee-/L 8aa-	.
8AA-\	8eee-/	.
8A-\ 8c	8ee-/ 8aa-	.
8AA-\J	8ccc/J	.
=75	=75	=75
8B-\L 8d	8ff/L 8aa-	.
8BB-\	8bb-/	.
8B-\ 8d	8ff/ 8aa-	.
8BB-\J	8ccc-X/J	.
8B-\L 8d	8ff/L 8aa-	.
8BB-\	8cccn/	.
8B-\ 8d	8ff/ 8aa-	.
8BB-\J	8ddd/J	.
=76	=76	=76
8E-\L 8G	8gg\L 8bb-	.
8EE-\	8eee-\	.
8E-\ 8G	8gg\ 8bb-	.
8EE-\J	8ggg\J	.
8D\L 8F	8aa-\L 8bb-	.
8EE-\	8fff\	.
8D\ 8F	8aa-\ 8bb-	.
8EE-\J	8bbb-\J	.
!!LO:LB:g=original
=77	=77	=77
8E-\L 8G	8gg\L 8bb-	.
8EE-\	8ggg\	.
!	!LO:TX:b:i:t=per  -                      den            -              -       do                    -si.	!
8E-\ 8G	8gg\ 8bb-	.
8EE-\J	8eee-\J	.
8D\L 8F	8aa-\L 8bb-	.
8EE-\	8fff\	.
8D\ 8F	8aa-\ 8bb-	.
8EE-\J	8bbb-\J	.
=78	=78	=78
8E-\L 8G	8gg\L 8bb-	.
8EE-\	8bbb-\	.
8D\ 8F	8aa-\ 8bb-	.
8EE-\J	8bbb-\J	.
8E-\L 8G	8gg\L 8bb-	.
8EE-\	8bbb-\	.
8D\ 8F	8aa-\ 8bb-	.
8EE-\J	8bbb-\J	.
=79	=79	=79
8E-\L 8G	8gg\L 8bb-	.
8EE-\	8bbb-\	.
8D\ 8F	8aa-\ 8bb-	.
8EE-\J	8bbb-\J	.
8E-\L 8G	8gg\L 8bb-	.
8EE-\	8bbb-\	.
8D\ 8F	8aa-\ 8bb-	.
8EE-\J	8bbb-\J	.
=80	=80	=80
4E-\ 4G	4gg/ 4bb-	.
4r	4r	.
*	*X8va	*
!	!LO:TX:a:i:t=loco	!
4E-\ 4G 4B- 4e-	4g\ 4b- 4ee- 4gg	f
4r	4r	.
=81	=81	=81
2.EE-;</ 2.E-	2.G;/ 2.B- 2.e-	.
!LO:TX:b:t=3 0 4 3	!	!
4ryy	4ryy	.
==	==	==
*-	*-	*-
!!!system-decoration: {(s1,s2)}
!!!RDF**kern:>=above
!!!RDF**kern: <= below
!!!ENC:Anna Matuszewska
!!!END:2020-07-20
